linode.svg

<svg viewBox="0 0 24 24" xmlns="http://www.w3.org/2000/svg"><path d="M6.9851 10.7891L6.07442 4.56568L2.33634 2.24188L3.54963 8.11248L6.98453 10.7903L6.9851 10.7891ZM8.02424 17.8993L7.38248 13.5143L4.10289 10.7823L4.98331 15.0348L8.02367 17.8993L8.02424 17.8993ZM5.47776 17.4163L6.12694 20.5525L8.83443 23.4262L8.37081 20.2619L5.47776 17.4168L5.47776 17.4163ZM14.2448 16.0574L12.8614 15.0011L12.8717 15.2489C12.8739 15.2988 12.8499 15.3462 12.8083 15.3739L11.76 16.0774L12.8945 17.0035C12.9002 17.008 12.9019 17.0115 12.9048 17.0149C12.9105 17.0206 12.9162 17.0263 12.9208 17.0332C12.9231 17.0366 12.9254 17.0406 12.9276 17.0446C12.9299 17.0486 12.9351 17.0577 12.9373 17.0646C12.9389 17.0689 12.9402 17.0732 12.9413 17.0777C12.9436 17.0851 12.9448 17.0925 12.9453 17.1005L12.9933 18.1933L14.2665 19.2645L14.2397 16.058L14.2448 16.0574ZM18.9878 12.6642L18.7172 15.7913L17.8208 15.1678L17.9178 13.5731C17.9178 13.556 17.9161 13.5492 17.9155 13.5434C17.915 13.5377 17.915 13.5343 17.9138 13.5303C17.9111 13.5192 17.9071 13.5085 17.9018 13.4983C17.8944 13.4846 17.887 13.4744 17.8779 13.4652L17.8539 13.4447L15.9257 12.1714L15.9543 10.7743L18.9884 12.6642" fill="#123d10"/><path d="M12.2882 8.30204L12.0358 2.39832L6.36618 4.5771L7.29284 10.901L12.2887 8.30147L12.2882 8.30204ZM12.5822 15.181L12.3966 10.8291L7.67482 13.5166L8.33713 18.0409L12.5822 15.1804L12.5822 15.181ZM12.6776 17.3866L8.662 20.2596L9.1496 23.5895L12.8174 20.6673L12.6776 17.3866ZM14.5332 16.0597L14.56 19.2787L17.4217 16.996L17.6124 13.8569L14.5332 16.0597ZM21.6702 10.9536L21.2688 13.9248L19.0112 15.7291L19.2761 12.6659L21.6707 10.9519" fill="#33b652"/><path d="M12.959 17.1079L12.9533 17.0765L12.9493 17.0634C12.9465 17.0566 12.9436 17.0497 12.9396 17.0434L12.9328 17.032C12.9282 17.0252 12.9225 17.0194 12.9168 17.0137L12.9088 17.0052L11.7726 16.0768L12.8157 15.3745C12.8573 15.3468 12.8813 15.2994 12.8791 15.2495L12.8688 15.0017L14.2523 16.058L14.2791 19.2645L13.0059 18.1933L12.9602 17.1085L12.959 17.1079ZM7.38934 13.5149L8.03109 17.8999L4.99073 15.0354L4.11032 10.7829L7.38991 13.5149L7.38934 13.5149ZM12.5822 15.181L8.33713 18.0415L7.67482 13.5172L12.3966 10.8297L12.5822 15.1815L12.5822 15.181ZM12.0364 2.40003L12.2887 8.30375L7.29284 10.9033L6.36618 4.57939L12.0358 2.4006L12.0364 2.40003ZM6.07556 4.57253L6.98624 10.796L3.55135 8.11819L2.33749 2.2533L6.07556 4.5771L6.07556 4.57253ZM6.12866 20.5537L5.47948 17.4174L8.37253 20.2625L8.83615 23.4268L6.12866 20.5531L6.12866 20.5537ZM12.8186 20.6679L9.15075 23.5901L8.66315 20.2602L12.6787 17.3871C12.6787 17.3871 12.8186 20.6679 12.8186 20.6679ZM17.4234 16.9966L14.5617 19.2793L14.5349 16.0602L17.6141 13.8575C17.6141 13.8575 17.4234 16.9966 17.4234 16.9966ZM17.823 15.1684L17.9201 13.5737C17.9201 13.5566 17.9184 13.5497 17.9178 13.544C17.9173 13.5383 17.9173 13.5349 17.9161 13.5309C17.9134 13.5198 17.9094 13.5091 17.9041 13.4989C17.8967 13.4852 17.8893 13.4749 17.8801 13.4658L17.8562 13.4452L15.928 12.172L15.9566 10.7749L18.9907 12.6647L18.72 15.7919L17.8236 15.1684L17.823 15.1684ZM19.0135 15.7308L19.2784 12.6676L21.673 10.9536L21.2688 13.9248L19.0112 15.7291L19.0135 15.7308ZM22.0036 10.6344L21.999 10.6116C21.9973 10.6036 21.995 10.5962 21.9916 10.5887L21.9859 10.5756C21.9818 10.5681 21.977 10.5611 21.9716 10.5545L21.9631 10.5442C21.9562 10.5373 21.9488 10.5316 21.9402 10.5259L21.9288 10.5174L18.6515 8.70171C18.6058 8.67659 18.551 8.67773 18.5071 8.70514L15.7413 10.3952C15.7368 10.398 15.7333 10.4009 15.7299 10.4049C15.7265 10.4089 15.7196 10.4123 15.7156 10.4163C15.7116 10.4203 15.7071 10.4266 15.7042 10.4317L15.6939 10.4454C15.6905 10.4511 15.6882 10.458 15.6854 10.4643C15.6825 10.4705 15.6808 10.474 15.6797 10.4791C15.6785 10.4842 15.6774 10.4934 15.6762 10.5008C15.6751 10.5082 15.674 10.5099 15.674 10.5151L15.6426 11.9824L14.5178 11.2391C14.4709 11.2082 14.411 11.2071 14.3636 11.2362L12.7449 12.2257L12.6747 10.5802L12.6747 10.5488C12.6736 10.5431 12.6713 10.5385 12.669 10.5339L12.661 10.5168C12.6581 10.5111 12.6553 10.5071 12.6513 10.5025L12.6399 10.4882C12.6353 10.4837 12.6307 10.4797 12.6256 10.4768C12.6205 10.474 12.6199 10.4711 12.6165 10.4688L10.9321 9.33719L12.5091 8.51672C12.5588 8.49103 12.5891 8.4385 12.5862 8.38312L12.3213 2.18821C12.3207 2.18079 12.319 2.17336 12.3179 2.16537C12.3133 2.14367 12.3082 2.13111 12.3019 2.12083C12.2922 2.10656 12.2859 2.098 12.2779 2.09114L12.2568 2.07402C12.2533 2.07173 12.2493 2.07059 12.2453 2.06831L7.9917 0.014565C7.95882-0.0015491 7.921-0.00441083 7.88607 0.00657157L2.09083 1.8108C2.07199 1.8188 2.06228 1.82336 2.05258 1.82965C2.04858 1.8325 2.04687 1.83535 2.04344 1.83821C2.03602 1.84392 2.0286 1.84963 2.02289 1.85762C2.01718 1.86562 2.01547 1.86904 2.01147 1.87475C2.00747 1.88046 2.00405 1.88617 2.00119 1.89188C1.99834 1.89759 1.99662 1.9073 1.99548 1.91472C1.99434 1.91929 1.99206 1.92385 1.99148 1.92899C1.99091 1.93813 1.99148 1.94612 1.99206 1.95297C1.99263 1.95982 1.99206 1.9661 1.9932 1.97296L3.28642 8.22154C3.29327 8.25465 3.31154 8.28434 3.33895 8.30604L5.09408 9.67406L3.82369 10.2781C3.8157 10.2838 3.81342 10.2838 3.81227 10.2838L3.78487 10.3067L3.77459 10.3181C3.76863 10.3257 3.76347 10.334 3.75918 10.3427C3.7489 10.3638 3.74547 10.3769 3.74376 10.39C3.74319 10.4095 3.74319 10.4209 3.74547 10.4323L4.71839 15.137C4.72435 15.1659 4.73911 15.1922 4.76064 15.2124L5.98249 16.3628L5.17287 16.8579C5.16259 16.8636 5.15289 16.8721 5.14432 16.8807C5.13119 16.8961 5.12548 16.9053 5.12034 16.915C5.11239 16.9304 5.10699 16.9469 5.10436 16.9641C5.10264 16.9778 5.10378 16.9915 5.10607 17.0052L5.85973 20.6496C5.86544 20.6753 5.87686 20.6993 5.89571 20.7181L8.94463 23.9543C8.9492 23.9589 8.95434 23.9629 8.95947 23.9669C8.97432 23.9783 8.9846 23.984 8.99544 23.9886C9.01543 23.996 9.03256 24 9.04969 24C9.06406 23.9997 9.07831 23.9972 9.09194 23.9926L9.11249 23.9852C9.1182 23.9823 9.12277 23.9777 9.12791 23.9737C9.13305 23.9697 9.1359 23.9703 9.13933 23.968L13.0601 20.8449C13.0961 20.8163 13.1161 20.7718 13.1143 20.7261L13.023 18.581L14.3328 19.683L14.3636 19.703L14.3824 19.7087C14.3963 19.7133 14.4107 19.7158 14.4253 19.7161C14.4395 19.7161 14.4538 19.7132 14.4669 19.7092L14.4864 19.7024C14.4938 19.699 14.4995 19.6938 14.5058 19.6893L17.6575 17.177C17.6894 17.1513 17.7146 17.1142 17.7111 17.0731L17.8071 15.5001L18.7634 16.1659C18.7726 16.1704 18.7748 16.1733 18.7777 16.1744C18.7805 16.1756 18.7891 16.179 18.7948 16.1813L18.8062 16.1858C18.8188 16.1893 18.8319 16.1916 18.8451 16.1916C18.8582 16.1916 18.8736 16.1887 18.8873 16.1847L18.9067 16.179C18.9147 16.175 18.921 16.1699 18.9284 16.1653L21.4995 14.1178C21.528 14.095 21.5474 14.0607 21.5526 14.0242L22.0076 10.659L22.0088 10.6316" fill="#231f20"/></svg>

<svg viewBox="0 0 24 24" xmlns="http://www.w3.org/2000/svg"><path d="m6.985 10.79-.91-6.224-3.739-2.324 1.214 5.87 3.435 2.678Zm1.04 7.11-.643-4.386-3.28-2.732.881 4.253 3.04 2.864h.001Zm-2.547-.484.649 3.136 2.707 2.874-.463-3.164-2.893-2.845Zm8.767-1.359-1.384-1.056.01.248a.143.143 0 0 1-.063.125l-1.048.703 1.135.926.01.012.016.018a.15.15 0 0 1 .016.032.117.117 0 0 1 .004.013.096.096 0 0 1 .004.023l.048 1.092 1.274 1.072-.027-3.207h.005Zm4.743-3.393-.27 3.127-.897-.623.097-1.595c0-.017-.002-.024-.002-.03l-.002-.013a.142.142 0 0 0-.036-.065l-.024-.02-1.928-1.274.028-1.397 3.034 1.89" fill="#123d10"/><path d="m12.288 8.302-.252-5.904-5.67 2.18.927 6.323 4.996-2.6v.001Zm.294 6.879-.185-4.352-4.722 2.688.662 4.524 4.245-2.86Zm.096 2.206L8.662 20.26l.488 3.33 3.667-2.923-.14-3.28Zm1.855-1.327.027 3.219 2.862-2.283.19-3.14-3.079 2.204Zm7.137-5.106-.401 2.97-2.258 1.805.265-3.063 2.395-1.714" fill="#33b652"/><path d="m12.959 17.108-.006-.032-.004-.013a.127.127 0 0 0-.01-.02l-.006-.011a.127.127 0 0 0-.016-.018l-.008-.009-1.136-.928 1.043-.703a.143.143 0 0 0 .063-.125l-.01-.247 1.383 1.056.027 3.207-1.273-1.072-.046-1.085h-.001Zm-5.57-3.593.642 4.385-3.04-2.865-.88-4.252 3.279 2.732Zm5.193 1.666-4.245 2.86-.662-4.524 4.722-2.687.185 4.351ZM12.036 2.4l.253 5.904-4.996 2.6-.927-6.325 5.67-2.178V2.4Zm-5.96 2.173.91 6.223-3.435-2.678-1.214-5.865 3.739 2.324v-.004Zm.053 15.98-.65-3.136 2.894 2.845.463 3.165-2.707-2.874Zm6.69.115L9.15 23.59l-.488-3.33 4.016-2.873.14 3.28Zm4.604-3.671-2.861 2.282-.027-3.219 3.08-2.202-.192 3.139Zm.4-1.829.097-1.594c0-.017-.002-.024-.002-.03 0-.006 0-.01-.002-.013a.142.142 0 0 0-.036-.065l-.024-.02-1.928-1.274.029-1.397 3.034 1.89-.271 3.127-.896-.624h-.001Zm1.19.563.265-3.063 2.395-1.714-.404 2.97-2.258 1.805.003.002Zm2.99-5.097L22 10.612a.11.11 0 0 0-.007-.023l-.006-.013a.137.137 0 0 0-.014-.021l-.009-.01a.144.144 0 0 0-.023-.02l-.011-.008-3.277-1.815a.142.142 0 0 0-.145.003l-2.766 1.69a.046.046 0 0 0-.011.01l-.014.011a.08.08 0 0 0-.012.016l-.01.013c-.004.006-.006.013-.009.02-.003.005-.004.009-.005.014-.002.005-.003.014-.004.022l-.002.014-.031 1.467-1.125-.743a.143.143 0 0 0-.154-.003l-1.62.99-.07-1.646v-.031c0-.006-.003-.01-.005-.015l-.008-.017a.065.065 0 0 0-.01-.014l-.011-.015a.072.072 0 0 0-.014-.011l-.01-.008-1.684-1.132 1.577-.82a.143.143 0 0 0 .077-.134l-.265-6.195-.003-.023a.134.134 0 0 0-.04-.074l-.021-.017-.012-.006L7.992.015a.143.143 0 0 0-.106-.008L2.091 1.81a.236.236 0 0 0-.038.019l-.01.008c-.007.006-.014.012-.02.02l-.012.017a.136.136 0 0 0-.01.017.09.09 0 0 0-.006.023c0 .004-.003.009-.004.014l.001.024.001.02 1.293 6.249a.145.145 0 0 0 .053.084l1.755 1.368-1.27.604c-.008.006-.01.006-.012.006l-.027.023-.01.011a.14.14 0 0 0-.016.025.143.143 0 0 0-.015.047l.001.042.973 4.705c.006.029.021.055.043.075l1.221 1.15-.81.496a.134.134 0 0 0-.052.057.16.16 0 0 0-.016.05.142.142 0 0 0 .002.04l.754 3.645c.005.025.017.05.036.068l3.049 3.236.014.013a.155.155 0 0 0 .036.022c.02.007.038.011.055.011a.141.141 0 0 0 .042-.007l.02-.008.016-.011c.005-.004.008-.004.011-.006l3.921-3.123a.145.145 0 0 0 .054-.119l-.091-2.145 1.31 1.102.03.02.02.006a.146.146 0 0 0 .042.007.144.144 0 0 0 .042-.007l.02-.007c.007-.003.012-.008.019-.013l3.151-2.512c.032-.026.058-.063.054-.104l.096-1.573.956.666c.01.004.012.007.015.008l.017.007.011.005a.146.146 0 0 0 .04.006.159.159 0 0 0 .041-.007l.02-.006c.008-.004.014-.01.021-.014l2.572-2.047a.148.148 0 0 0 .053-.094l.455-3.365v-.027" fill="#231f20"/></svg>
